X:1
T:THE INTERNATIONALE
T:THE INTERNATIONALE
T:Music by Pierre Degeyter 
T:Original French text by Eugène Pottier 
C:Music by Pierre Degeyter
Z:Original French text by Eugène Pottier
%%score ( 1 2 ) { ( 3 5 6 ) | ( 4 7 ) }
L:1/8
Q:1/4=120
M:4/4
K:A
V:1 treble nm="Voice"
V:2 treble 
V:3 treble nm="Piano"
V:5 treble 
V:6 treble 
V:4 bass 
V:7 bass 
V:1
"^In march time"!f! E2 | A3 G B A E C | F4 D2 z F | B3 A G F E D | C4- C z E2 | A3 G B A E C | %6
w: A-|rise, you pris- ’ners of star-|va- tion! A-|rise you wretch- ed of the|earth, _ For|jus- tice thun- ders con- dem-|
w: De-|bout, les dam- nés de la|ter- re! De-|bout, les for- çats de la|faim! _ La|rai- son sonne en son cra-|
 F4 D2 (BA) | (G2 B2) d2 G2 | A4- A z (cB) | G3 G (F G) A F | G4 E E ^D E | F3 F B3 A | %12
w: na- tion, A _|bet- ter world’s in|birth. _ No _|more tra- di- tion’s chains shall|bind us, A- rise, you|slaves, no more in|
w: tè- * * *|tion _ de la|fin. _ _ _|sé fai- sons _ ta- ble|ra- se, Fou- les d’es-|clav’s, de- bout, de-|
 G4- G z B2 | B3 G E E ^D E | c4 A A G A | B2 B2 A2 F2 | E4- E z"^Refrain" c3/2 B/ || A4 E4 | %18
w: thrall! _ The|earth shall rise on new foun-|da- tions, We have been|naught; we shall be|all. _ ’Tis the|fi- nal|
w: bout! _ Le|mon- de va chan- ger de|ba- se, Nous ne som-|mes rien, soy- ons|tout! _ C’est la|lut- *|
 F4 D z B3/2 A/ | G4 F3 E | E4- E z E2 | c3 c B2 E2 | A4 G2 z G | F3 ^E F2 B2 | B4- B z c3/2 B/ | %25
w: con- flict, Let each|stand in his|place; _ The|In- ter- na- tional|So- viet Shall|be the hu- man|race! _ ’Tis the|
w: na- le, Grou- pons|nous, et de-|main _ L’In-|* * na- tio-|na- le Se-|ra le genre hu-|main! _ C’est la|
 A4 E4 | F4 D z B3/2 A/ | G4 F3 E | c4- c z c2 | e3 e d2 c2 | (B^ABc) d2 z d | c3 =A B3 G | %32
w: fi- nal|con- flict, Let each|stand in his|place; _ The|In- ter- na- tional|So- * * * viet Shall|be the hu- man|
w: lut- *|na- le, Grou- pons|nous, et de-|main _ L’In-|* * na- tio-|na- * * * le Se-|ra le genre hu-|
 A4- A z |] %33
w: race! _|
w: main! _|
V:2
 x2 | x8 | x8 | x8 | x8 | x8 | x4 D D B A | x8 | x6 c B | x8 | x8 | x8 | x8 | x8 | x8 | x8 | x8 || %17
w: |||||||||||||||||
w: ||||||re, C’est l’é- rup-||Du pas-|||||||||
 x4 E3 C | x8 | x8 | x8 | c4 x4 | x8 | x8 | x8 | x4 E3 C | x8 | x8 | x8 | e4 x4 | x8 | x8 | x6 |] %33
w: ||||||||||||||||
w: te fi-||||ter-||||te fi-||||ter-||||
V:3
!f! E2 | A3 G BAEC | [A,DF]4 [F,B,D]2 z F | B3 A GFED | [A,C]6 !tenuto![G,B,DE]2 | A3 G BAEC | %6
 [F,F]4 D2 BA | [B,EG]2 B2 d2 [B,DG]2 | [A,CA]6 (cB) | G3 G FGAF | [B,EG]4 EE^DE | F3 F B3 A | %12
 [B,EG]6 [B,^DAB]2 | B3 G EE^DE | [Cc]4 AAGA | %15
 [B,=EB]2 !tenuto![B,^EB]2 !tenuto![CFA]2 !tenuto![A,^DF]2 | !tenuto!=E6 [CEc]>[B,DB] || %17
 [A,CA]4 [A,CE]4 | [A,DF]4 [A,D]2 B>A | [B,DG]4 F3 E | [A,CE]6 !tenuto![G,DE]2 | c3 c [B,EGB]2 E2 | %22
 [A,CFA]4 [G,CEG]2 z G | F3 ^E F2 [B,^DAB]2 | [B,=DGB]6 [EGc]>[DGB] | [CEA]4 [A,CE]4 | %26
 [A,DF]4 [A,D]2 B>A | [B,DG]4 F3 E | [CEc]6 !tenuto![CEc]2 | %29
!ff! !tenuto![E^Ae]3 !tenuto![EAe] !tenuto![DFd]2 !tenuto![CFc]2 | %30
 !tenuto![B,DFB]!tenuto![^A,^A]!tenuto![B,EFB]!tenuto![Cc] !tenuto![DFBd]2 z !tenuto![DFBd] | %31
 !tenuto![CE=Ac]3 !tenuto![CEA] !tenuto![DEGB]3 !tenuto![DEG] | !tenuto![CEA]6 |] %33
V:4
 E,2 | [A,,,A,,]2 [E,,E,]2 [C,,C,]2 [A,,,A,,]2 | [D,,D,]2 [C,,C,]2 [B,,,B,,]2 [A,,,A,,]2 | %3
 [G,,,G,,]2 [E,,,E,,]2 [F,,,F,,]2 [G,,,G,,]2 | [A,,,A,,]2 [C,,C,]>[D,,D,] [E,,E,]4 | %5
 [A,,,A,,]2 [E,,E,]2 [C,,C,]2 [A,,,A,,]2 | [D,,D,]2 [C,,C,]2 [B,,,B,,]2 [D,,D,]2 | %7
 [E,,E,]2 [D,,D,][C,,C,] [B,,,B,,]2 [E,,E,]2 | [A,,,A,,]2 E,,2 A,,,2 z2 | %9
 [E,,E,]2 [G,,,G,,]2 [A,,,A,,]2 [B,,,B,,]2 | [E,,E,]2 [^D,,^D,]2 [C,,C,]2 [B,,,B,,]2 | %11
 [A,,,A,,]2 [G,,,G,,]2 [F,,,F,,]2 [B,,,B,,]2 | [E,,,E,,]2 [B,,,B,,]2 [E,,E,]2 [F,,F,]2 | %13
 [G,,G,]2 [E,,E,]2 [F,,F,]2 [G,,G,]2 | [A,,A,]2 [G,,G,]2 [F,,F,]2 [^D,,^D,]2 | %15
 [G,,G,]2 [C,,C,]2 [F,,F,]2 [B,,,B,,]2 | [E,,E,]2 [E,,,E,,]4 !arpeggio![E,,G,]2 || %17
 A,,2 [A,,,A,,]2 [B,,,B,,]2 [C,,C,]2 | [D,,D,]2 [E,,E,]2 [F,,F,]2 [D,,D,]2 | %19
 [E,,E,]2 [E,,,E,,]2 [F,,,F,,]2 [G,,,G,,]2 | [A,,,A,,]2 [B,,,B,,]2 [C,,C,]2 [E,,E,]2 | %21
 [A,,,A,,]2 [C,,C,]2 [E,,E,]4 | [F,,,F,,]2 [A,,,A,,]2 [C,,C,]4 | %23
 [A,,,A,,]2 [F,,,F,,]2 [F,,F,]2 [B,,,B,,]2 | [E,,E,]2 [B,,,B,,]2 [E,,,E,,]2 !arpeggio![E,,G,]2 | %25
 [A,,A,]2 [A,,,A,,]2 [B,,,B,,]2 [C,,C,]2 | [D,,D,]2 [E,,E,]2 [F,,F,]2 [D,,D,]2 | %27
 [E,,E,]2 [E,,,E,,]2 [F,,,F,,]2 [G,,,G,,]2 | [A,,,A,,]2 [E,,E,]2 [A,,A,]2 z2 | z2 [F,^A,E]2 z4 | %30
 [D,,D,]2 [C,,C,]2 [B,,,B,,]2 [D,,,D,,]2 | [E,,,E,,]2 [E,A,C]2 [E,,,E,,]2 [E,G,D]2 | %32
 [A,,A,]2 [E,,E,]2 [A,,,A,,]2 |] %33
V:5
 x2 | [CE]4 E4 | x8 | [B,E]4 [A,D]2 B,2 | x8 | [CE]4 E4 | [A,D]2 [^A,E]2 [F,B,]2 [B,F]2 | %7
 x2 [DF]4 x2 | x8 | [B,E]4 [CE]2 [B,^D]2 | x4 [G,C]4 | [CE]4 [B,^D]4 | x8 | [B,-E]4 B, B,3 | %14
 (E2 ^E2 [CF]2) B,2 | x8 | [G,B,]2 [E,G,C]2 [F,A,=D]2 x2 || x8 | x6 [DF]2 | x4 D4 | x8 | %21
 [CEA]4 x4 | x8 | [CE]4 x4 | x8 | x8 | x6 [DF]2 | x4 D4 | x8 | x8 | x8 | x8 | x6 |] %33
V:6
 x2 | x8 | x8 | x8 | x8 | x8 | x8 | x8 | x8 | x8 | x8 | x8 | x8 | x8 | x8 | x8 | x8 || x8 | x8 | %19
 x4 A,2 B,2 | x8 | x8 | x8 | x8 | x8 | x8 | x8 | x4 A,2 B,2 | x8 | x8 | x8 | x8 | x6 |] %33
V:7
 x2 | x8 | x8 | x8 | x8 | x8 | x8 | x8 | x8 | x8 | x8 | x8 | x8 | x8 | x8 | x8 | x8 || x8 | x8 | %19
 x8 | x8 | x8 | x8 | x8 | x8 | x8 | x8 | x8 | x8 | [F,,,F,,]3 [C,,C,] [F,,F,]2 [E,,E,]2 | x8 | x8 | %32
 x6 |] %33

